X: 10540
T: Dooney Rock, The
R: jig
M: 6/8
K: Adorian
|:B|AGE EDE|GAB cBA|GDB, G,B,D|GAB c2B|
AGE EDE|GAB c2d|eag edB|BA^G A2:|
K:D
|:B|Ace ~a3|bag edB|GBd ~g3|age dB^G|
Ace ~a3|bag edB|GBd ~g3|edB A2:|

